public/icons/cup-star.svg

<?xml version="1.0" encoding="utf-8"?><!-- Uploaded to: SVG Repo, www.svgrepo.com, Generator: SVG Repo Mixer Tools -->
<svg width="800px" height="800px" viewBox="0 0 24 24" fill="none" xmlns="http://www.w3.org/2000/svg">
<path opacity="0.5" d="M12.0006 16C6.2407 16 5.22032 10.2595 5.03956 5.70647C4.98928 4.43998 4.96414 3.80673 5.43985 3.22083C5.91557 2.63494 6.48494 2.53887 7.62367 2.34674C8.74773 2.15709 10.2171 2 12.0006 2C13.7842 2 15.2536 2.15709 16.3776 2.34674C17.5163 2.53887 18.0857 2.63494 18.5614 3.22083C19.0371 3.80673 19.012 4.43998 18.9617 5.70647C18.781 10.2595 17.7606 16 12.0006 16Z" fill="#1C274C"/>
<path d="M17.6404 12.422L20.4569 10.8572C21.2093 10.4392 21.5855 10.2302 21.7927 9.87809C21.9999 9.52598 21.9999 9.09561 21.9999 8.23487L21.9999 8.16234C22 7.11873 22 6.59692 21.7168 6.20408C21.4337 5.81124 20.9387 5.64623 19.9486 5.31621L19 5L18.9831 5.08464C18.9784 5.27391 18.9702 5.48006 18.9612 5.70645C18.8729 7.93085 18.5842 10.4387 17.6404 12.422Z" fill="#1C274C"/>
<path d="M5.03907 5.70647C5.12739 7.93096 5.41612 10.4389 6.36008 12.4223L3.54305 10.8572C2.79063 10.4392 2.41442 10.2302 2.20723 9.87809C2.00004 9.52598 2.00003 9.09561 2 8.23487L2 8.16234C1.99997 7.11874 1.99996 6.59692 2.2831 6.20408C2.56624 5.81124 3.06126 5.64623 4.05132 5.31621L4.99994 5L5.01728 5.08671C5.02196 5.27541 5.03011 5.4809 5.03907 5.70647Z" fill="#1C274C"/>
<path fill-rule="evenodd" clip-rule="evenodd" d="M5.25 22C5.25 21.5858 5.58579 21.25 6 21.25H18C18.4142 21.25 18.75 21.5858 18.75 22C18.75 22.4142 18.4142 22.75 18 22.75H6C5.58579 22.75 5.25 22.4142 5.25 22Z" fill="#1C274C"/>
<path opacity="0.5" d="M15.4582 21.25H8.54297L8.83979 19.5002C8.93327 19.0327 9.34368 18.6963 9.82037 18.6963H14.1808C14.6574 18.6963 15.0679 19.0327 15.1613 19.5002L15.4582 21.25Z" fill="#1C274C"/>
<path d="M12.0002 16.0002C11.7406 16.0002 11.4907 15.9885 11.25 15.9658V18.6963H12.75V15.9658C12.5094 15.9885 12.2596 16.0002 12.0002 16.0002Z" fill="#1C274C"/>
<path d="M11.1459 6.02251C11.5259 5.34084 11.7159 5 12 5C12.2841 5 12.4741 5.34084 12.8541 6.02251L12.9524 6.19887C13.0603 6.39258 13.1143 6.48944 13.1985 6.55334C13.2827 6.61725 13.3875 6.64097 13.5972 6.68841L13.7881 6.73161C14.526 6.89857 14.895 6.98205 14.9828 7.26432C15.0706 7.54659 14.819 7.84072 14.316 8.42898L14.1858 8.58117C14.0429 8.74833 13.9714 8.83191 13.9392 8.93531C13.9071 9.03872 13.9179 9.15023 13.9395 9.37327L13.9592 9.57632C14.0352 10.3612 14.0733 10.7536 13.8435 10.9281C13.6136 11.1025 13.2682 10.9435 12.5773 10.6254L12.3986 10.5431C12.2022 10.4527 12.1041 10.4075 12 10.4075C11.8959 10.4075 11.7978 10.4527 11.6014 10.5431L11.4227 10.6254C10.7318 10.9435 10.3864 11.1025 10.1565 10.9281C9.92674 10.7536 9.96476 10.3612 10.0408 9.57632L10.0605 9.37327C10.0821 9.15023 10.0929 9.03872 10.0608 8.93531C10.0286 8.83191 9.95713 8.74833 9.81418 8.58117L9.68403 8.42898C9.18097 7.84072 8.92945 7.54659 9.01723 7.26432C9.10501 6.98205 9.47396 6.89857 10.2119 6.73161L10.4028 6.68841C10.6125 6.64097 10.7173 6.61725 10.8015 6.55334C10.8857 6.48944 10.9397 6.39258 11.0476 6.19887L11.1459 6.02251Z" fill="#1C274C"/>
</svg>

<svg xmlns="http://www.w3.org/2000/svg" width="800" height="800" fill="none" viewBox="0 0 24 24"><path fill="#1C274C" d="M12 16c-5.76 0-6.78-5.74-6.96-10.3-.05-1.26-.08-1.9.4-2.48.48-.59 1.04-.68 2.18-.87C8.75 2.15 10.22 2 12 2c1.78 0 3.25.16 4.38.35 1.14.19 1.7.28 2.18.87.48.59.45 1.22.4 2.49C18.78 10.26 17.76 16 12 16Z" opacity=".5"/><path fill="#1C274C" d="m17.64 12.42 2.82-1.56c.75-.42 1.13-.63 1.33-.98.21-.35.21-.78.21-1.65v-.07c0-1.04 0-1.56-.28-1.96-.29-.39-.78-.55-1.77-.88L19 5l-.02.08-.02.63c-.09 2.22-.38 4.73-1.32 6.71ZM5.04 5.7c.09 2.23.38 4.74 1.32 6.72l-2.82-1.56c-.75-.42-1.13-.63-1.33-.98C2 9.53 2 9.1 2 8.23v-.07c0-1.04 0-1.56.28-1.96.29-.39.78-.55 1.77-.88L5 5l.02.09.02.62Z"/><path fill="#1C274C" fill-rule="evenodd" d="M5.25 22c0-.41.34-.75.75-.75h12a.75.75 0 0 1 0 1.5H6a.75.75 0 0 1-.75-.75Z" clip-rule="evenodd"/><path fill="#1C274C" d="M15.46 21.25H8.54l.3-1.75a1 1 0 0 1 .98-.8h4.36a1 1 0 0 1 .98.8l.3 1.75Z" opacity=".5"/><path fill="#1C274C" d="M12 16c-.26 0-.5-.01-.75-.03v2.73h1.5v-2.73c-.24.02-.49.03-.75.03ZM11.15 6.02c.38-.68.57-1.02.85-1.02s.47.34.85 1.02l.1.18c.11.2.16.29.25.35.08.07.19.1.4.14l.19.04c.74.17 1.1.25 1.2.53.08.29-.17.58-.67 1.17l-.13.15c-.15.17-.22.25-.25.36-.03.1-.02.21 0 .43l.02.2c.08.8.11 1.18-.12 1.36-.23.17-.57.01-1.26-.3l-.18-.09c-.2-.09-.3-.13-.4-.13-.1 0-.2.04-.4.13l-.18.09c-.69.31-1.03.47-1.26.3-.23-.18-.2-.57-.12-1.35l.02-.2c.02-.23.03-.34 0-.44a1.1 1.1 0 0 0-.25-.36l-.13-.15c-.5-.59-.75-.88-.66-1.17.09-.28.45-.36 1.2-.53l.18-.04c.21-.05.32-.07.4-.14.09-.06.14-.16.25-.35l.1-.18Z"/></svg>
